X:1
T:Are You Coming to Jesus Tonight?
T:Are You Coming to Jesus Tonight?
T:James Edward Hawes, 1917
T:Jessie Brown Pounds, 1889
T:Public Domain Courtesy of the Cyber Hymnal™
C:James Edward Hawes, 1917
Z:Public Domain
Z:Courtesy of the Cyber Hymnal™
%%score ( 1 2 ) ( 3 4 )
L:1/8
Q:1/4=110
M:4/4
K:E
V:1 treble 
V:2 treble 
V:3 bass 
V:4 bass 
V:1
 [GB] | [GB]2 [EG][EF] E2 [EG][Ec] | [EB]6 z [EB] | [EB]2 [EG][EF] E2 [EG][EG] | [DF]6 z [EB] | %5
w: 1.~The|voice of the Sav- ior says,|“Come” The|cross where He died is in|sight; E’en|
w: 2.~The|voice of the Fa- ther im-|plores From|mer- cy’s most won- der- ful|height; His|
w: 3.~The|voic- es of loved ones en-|treat: You|know in your heart they are|right; Then|
w: 4.~The|voic- es of friends gone be-|fore Seem|float- ing from re- gions of|light; They|
w: 5.~O|who to him- self will be|true, Of|all whom these voic- es in-|vite? Who|
 [EB]2 [EG][EF] E2 [EG][EB] | [Ec]6 [Ec]>[Ec] | [EB] [EB]2 [EB] [EG]2 [DF]>E | E6 || %9
w: now at the cross there is|room; Are you|com- ing to Je- sus to-|night?|
w: love in that call He out-|pours: Are you|com- ing to Je- sus to-|night?|
w: list, for the mo- ments are|fleet! Are you|com- ing to Je- sus to-|night?|
w: ten- der- ly say o’er and|o’er, Are you|com- ing to Je- sus to-|night?|
w: an- swers, my bro- ther, do|you? Are you|com- ing to Je- sus to-|night?|
"^Refrain" [EB]>[EB] | [EB]2 [EG]F E2 [EG][Ec] | B6 [EB]>[EB] | [EB]2 [EG]F E2 [EG]>[EG] | %13
w: ||||
w: ||||
w: ||||
w: ||||
w: ||||
 F6- F[EB] | [EB]2 [EG]F E2 [EG][GB] | [A-c]4 [Ae]2 [Ad]>[Ac] | [GB] [GB]2 [GB] [EG]2 [DF]>[B,E] | %17
w: ||||
w: ||||
w: ||||
w: ||||
w: ||||
 [B,E]6 z |] %18
w: |
w: |
w: |
w: |
w: |
V:2
 x | x4 E2 x2 | x8 | x4 E2 x2 | x8 | x4 E2 x2 | x8 | x15/2 E/ | E6 || x2 | x3 E x4 | %11
 (E2 E2 E2) x2 | x3 E x4 | (D2 D2 D2- D) x | x3 E x4 | x8 | x8 | x7 |] %18
V:3
 [E,B,] | [E,B,]2 [E,B,][E,A,] [E,G,]2 [E,B,][E,A,] | [E,G,]6 z [E,G,] | %3
w: ~|~ ~ ~ ~ ~ ~|~ ~|
 [E,G,]2 [E,B,][F,A,] [E,G,]2 [E,B,][E,B,] | [B,,B,]6 z [E,G,] | %5
w: ~ ~ ~ ~ ~ ~|~ ~|
 [E,G,]2 [E,B,][E,A,] [E,G,]2 [E,B,][E,G,] | A,6 [A,,A,]>[A,,A,] | %7
w: ~ ~ ~ ~ ~ ~|~ ~ ~|
 [B,,G,] [B,,G,]2 [B,,G,] [B,,B,]2 [B,,A,]>[E,G,] | [E,G,]6 || [E,G,]>[E,G,] | %10
w: ~ ~ ~ ~ ~ ~|~|Are you|
 [E,G,]2 [E,B,][E,A,] [E,G,]2 [E,B,][E,A,] | ([E,G,]2 [E,G,]2 [E,G,]2) [E,G,]>[E,G,] | %12
w: com- ing to Je- sus to-|night? * * Are you|
 [E,G,]2 [E,B,][E,A,] [E,G,]2 [E,B,]>[E,B,] | ([B,,B,]2 [B,,B,]2 [B,,B,]3) [E,G,] | %14
w: com- ing to Je- sus to-|night? * * The|
 [E,G,]2 [E,B,][E,A,] [E,G,]2 [E,B,][E,E] | [A,-E]4 [A,C]2 [A,,D]>[A,,E] | %16
w: Bride and the Spir- it in-|vite; * Are you|
 [B,,E] [B,,E]2 [B,,E] [B,,B,]2 [B,,A,]>[E,G,] | [E,G,]6 z |] %18
w: com- ing to Je- sus to-|night?|
V:4
 x | x8 | x8 | x8 | x8 | x8 | A,6 x2 | x8 | x6 || x2 | x8 | x8 | x8 | x8 | x8 | x8 | x8 | x7 |] %18

